src/24/actions/view-calendar-wedding-anniversary.svg

<svg xmlns="http://www.w3.org/2000/svg" viewBox="0 0 24 24">
  <defs id="defs3051">
    <style type="text/css" id="current-color-scheme">
      .ColorScheme-Text {
        color:#5d656b;
      }
      </style>
  </defs>
 <path style="fill:currentColor;fill-opacity:1;stroke:none" 
     d="M 7 4 C 7 4 6 3.99997 6 5 L 4 5 L 4 8 L 4 19 L 4 20 L 20 20 L 20 19 L 20 8 L 20 5 L 18 5 C 18 3.99997 17 4 17 4 L 14 4 C 14 4 13 3.99997 13 5 L 11 5 C 11 3.99997 10 4 10 4 L 7 4 z M 7 5 L 10 5 L 10 6 L 7 6 L 7 5 z M 14 5 L 17 5 L 17 6 L 14 6 L 14 5 z M 5 8 L 19 8 L 19 19 L 5 19 L 5 8 z M 10.5 10 C 8.561 10 7 11.561 7 13.5 C 7 15.439 8.561 17 10.5 17 C 11.039612 17 11.544436 16.870591 12 16.654297 C 12.455564 16.870591 12.960388 17 13.5 17 C 15.439 17 17 15.439 17 13.5 C 17 11.561 15.439 10 13.5 10 C 12.960388 10 12.455564 10.129409 12 10.345703 C 11.544436 10.129409 11.039612 10 10.5 10 z M 10.5 11 C 10.671802 11 10.840074 11.018081 11.001953 11.050781 C 10.383734 11.681389 10 12.543049 10 13.5 C 10 14.456951 10.383734 15.318613 11.001953 15.949219 C 10.840074 15.981919 10.671802 16 10.5 16 C 9.115 16 8 14.885 8 13.5 C 8 12.115 9.115 11 10.5 11 z M 13.5 11 C 14.885 11 16 12.115 16 13.5 C 16 14.885 14.885 16 13.5 16 C 13.328199 16 13.159927 15.981919 12.998047 15.949219 C 13.616266 15.318611 14 14.456951 14 13.5 C 14 12.543049 13.616266 11.681387 12.998047 11.050781 C 13.159927 11.018081 13.328199 11 13.5 11 z M 12 11.507812 C 12.604994 11.963267 13 12.681048 13 13.5 C 13 14.318952 12.604994 15.036735 12 15.492188 C 11.395006 15.036732 11 14.318952 11 13.5 C 11 12.681048 11.395006 11.963265 12 11.507812 z "
     class="ColorScheme-Text"
     />
</svg>

<svg xmlns="http://www.w3.org/2000/svg" viewBox="0 0 24 24"><path d="M7 4S6 4 6 5H4v15h16V5h-2c0-1-1-1-1-1h-3s-1 0-1 1h-2c0-1-1-1-1-1H7zm0 1h3v1H7V5zm7 0h3v1h-3V5zM5 8h14v11H5V8zm5.5 2A3.492 3.492 0 0 0 7 13.5c0 1.939 1.561 3.5 3.5 3.5.54 0 1.044-.13 1.5-.346.456.217.96.346 1.5.346 1.939 0 3.5-1.561 3.5-3.5S15.439 10 13.5 10c-.54 0-1.044.13-1.5.346A3.482 3.482 0 0 0 10.5 10zm0 1c.172 0 .34.018.502.05A3.484 3.484 0 0 0 10 13.5c0 .957.384 1.819 1.002 2.45A2.495 2.495 0 0 1 8 13.5c0-1.385 1.115-2.5 2.5-2.5zm3 0c1.385 0 2.5 1.115 2.5 2.5a2.495 2.495 0 0 1-3.002 2.45A3.484 3.484 0 0 0 14 13.5c0-.957-.384-1.819-1.002-2.45.162-.032.33-.05.502-.05zm-1.5.508a2.485 2.485 0 0 1 0 3.984 2.485 2.485 0 0 1 0-3.984z" fill="currentColor" color="#5d656b"/></svg>
